!!!OTL: 686. Der Rattenfaenger.
!!!COM: Volksmelodie
!!!ODT: 1810 (um)
!!!ARE: Europa, Mitteleuropa, Deutschland
!!!SCT: B0686
!!!TXL: @@DE
!!!YEM: Copyright 1995, estate of Helmut Schaffrath.
**kern	**text
*ICvox	*
*Ivox	*
*clefG2	*
*M3/4	*
*k[f#c#g#]	*
*A:	*
!LO:TX:a:t=Mäßig bewegt.	!
{8e	Jch
=1	=1
8.e	bin
16a	der
8a	wohlbekann-
8a	.
8a	.
8a	-te
=2	=2
8g#L	Sän-
8bJ	.
4e	-ger,
8r}	.
{8e	der
=3	=3
8.e	viel-
16b	-ge-
8b	-rei-
8b	-ſte
8b	Ratten-
8b	.
=4	=4
8a/L	-fän-
8cc#J	.
4e	-ger,
8r}	.
{8e	den
=5	=5
8.a	die-
16b	-ſe
8cc#	alt-
8b	-be-
8a	-rühm-
8g#	-te
=6	=6
2f#	Stadt
8r}	.
{8f#	ge-
=7	=7
8.f#	-wiß
16e	be-
8e	-ſon-
8e	-ders
8f#	nö-
8g#	-thig
=8	=8
4a	hat;
4r	.
8r}	.
{8a	und
=9	=9
8g#	wä-
8e	-rens
8b	Rat-
8e	-ten
8dd	noch
8g#	ſo
=10	=10
8bL	vie-
8aJ	.
4a	-le,
8r}	.
{8a	und
=11	=11
8g#	wä-
8b	-ren
8dd	Wie-
8b	-ſel
8g#	mit
8e	im
=12	=12
8.bL	Spie-
16aJ	.
4a	-le,
8r}	.
{8e	von
=13	=13
8.a	al-
16b	-len
8cc#	ſäubr'
8b	ich
8a	die-
8g#	-ſen
=14	=14
2f#	Ort
8r}	.
{8f#	ſie
=15	=15
8.f#	müſ-
16e	-ſen
8e	mit
8e	ein-
8f#	-an-
8g#	-der
=16	=16
2a}	fort,
{8cc#L	ſie
8aJ	.
=17	=17
8.e	müſ-
16e	-ſen
8e	mit
8e	ein-
8f#	-an-
8g#	-der
=18	=18
2a}	fort.
{(8cc#L	ſie
8aJ)	.
=19	=19
8.dd	müſ-
16e	-ſen
8e	mit
8e	ein-
8f#	-an-
8g#	-der
=20	=20
2a	fort.
8r}	.
==	==
!!!AGN: Scherz - Lied
!!!GTL: Scherzlieder und Gemischtes
!!!ONB: ESAC (Essen Associative Code) Database: BOEHME
!!!AMT: simple triple
!!!AIN: vox
!!!EED: Helmut Schaffrath
!!!EEV: 1.0
!!Volksmel. um 1810.
!!@@COMMENT:"Gedicht von Goethe. Ʒuerſt gedruckt in: "Taſchenbuch für das Jahr 1804. Herausgegeben von Wieland und Goethe. Tübingen. S. 148. Düntʒer J, 287 ſetʒt die Entſtehung des Liedes ins Jahr 1802. Daß es ſchon früher bei Anweſenheit 
!!des Bellancaſchen Kinderballets 1784 gedichtet worden, iſt ʒweifelhaft, weil Goethe ſich damals noch nicht mit dem Theater befaßte. 
!!Vergl. Volkslied im Wunderhorn" J. 44 (a. A.). Hier ſteht die Volksmelodie die mit Begleitung der Guitarre durch Einʒeldruck des Liedes (Berlin bei Concha) ſchon vor 1810 bekannt war.[...]"
!!@@END:
!!!Text: J. W. Goethe
!!!URL-scan: https://archive.org/details/BoehmeVtLieder1895/page/n539/mode/2up
!!!ENC: Anna Maria Matuszewska
!!!EEV: 2024/17/07
*-	*-
